**harm	**harte	**kern	**silbe	**kern	**silbe	**rhyme	**timestamp	**phrase	**leadinstrument
*M4/4	*M4/4	*ICvox	*	*ICvox	*	*	*	*	*
*	*	*VRlead	*	*VRharmonize	*	*	*	*	*
*	*	*Hstimme	*	*Nstimme	*	*	*	*	*
*B-:	*B-:	*B-:	*	*B-:	*	*	*	*	*
*	*	*M4/4	*	*M4/4	*	*	*	*	*
*	*	*clefF4	*	*clefGv2	*	*	*	*	*
1r;	N	r;	.	r;	.	.	0	.	r
1r;	N	r;	.	r;	.	.	2.276	.	r
=1	=1	=1	=1	=1	=1	=1	=1	=1	=1
*>Letter>A	*>Letter>A	*>Letter>A	*>Letter>A	*>Letter>A	*>Letter>A	*>Letter>A	*>Letter>A	*>Letter>A	*>Letter>A
*>Label>Intro	*>Label>Intro	*>Label>Intro	*>Label>Intro	*>Label>Intro	*>Label>Intro	*>Label>Intro	*>Label>Intro	*>Label>Intro	*>Label>Intro
1V	F:maj(9)	1r	.	1r	.	.	7.802	newline	synthesizer
=2	=2	=2	=2	=2	=2	=2	=2	=2	=2
1V	F:maj(9)	1r	.	1r	.	.	9.275	.	synthesizer
=3	=3	=3	=3	=3	=3	=3	=3	=3	=3
1iv	E-:min6(#11)	1r	.	1r	.	.	10.747	.	synthesizer
=4	=4	=4	=4	=4	=4	=4	=4	=4	=4
1iv	E-:min6(#11)	1r	.	1r	.	.	12.22	.	synthesizer
=5	=5	=5	=5	=5	=5	=5	=5	=5	=5
1I	B-:maj	1r	.	1r	.	.	13.693	.	synthesizer
=6	=6	=6	=6	=6	=6	=6	=6	=6	=6
1I	B-:maj	1r	.	1r	.	.	15.165	.	synthesizer
=7	=7	=7	=7	=7	=7	=7	=7	=7	=7
1I	B-:maj	1r	.	1r	.	.	16.638	.	synthesizer
=8	=8	=8	=8	=8	=8	=8	=8	=8	=8
1I	B-:maj	1r	.	1r	.	.	18.111	.	synthesizer
=9	=9	=9	=9	=9	=9	=9	=9	=9	=9
1V	F:maj(9)	1r	.	1r	.	.	19.583	newline	synthesizer
=10	=10	=10	=10	=10	=10	=10	=10	=10	=10
1V	F:maj(9)	1r	.	1r	.	.	20.99	.	synthesizer
=11	=11	=11	=11	=11	=11	=11	=11	=11	=11
1IV7	E-:maj9(13,#11)	1r	.	1r	.	.	22.397	.	synthesizer
=12	=12	=12	=12	=12	=12	=12	=12	=12	=12
1IV7	E-:maj9(13,#11)	1r	.	1r	.	.	23.803	.	synthesizer
=13	=13	=13	=13	=13	=13	=13	=13	=13	=13
1I	B-:maj	1r	.	1r	.	.	25.21	.	synthesizer
=14	=14	=14	=14	=14	=14	=14	=14	=14	=14
1I	B-:maj	1r	.	1r	.	.	26.617	.	synthesizer
=15	=15	=15	=15	=15	=15	=15	=15	=15	=15
1I	B-:maj	1r	.	1r	.	.	28.024	.	synthesizer
=16	=16	=16	=16	=16	=16	=16	=16	=16	=16
1I	B-:maj	2r	.	1r	.	.	29.43	.	synthesizer
.	.	4r	.	.	.	.	.	.	.
.	.	8BB-	As	.	.	.	.	.	.
.	.	8BB-	the	.	.	.	.	.	.
=17	=17	=17	=17	=17	=17	=17	=17	=17	=17
*>Letter>B	*>Letter>B	*>Letter>B	*>Letter>B	*>Letter>B	*>Letter>B	*>Letter>B	*>Letter>B	*>Letter>B	*>Letter>B
*>Label>Verse	*>Label>Verse	*>Label>Verse	*>Label>Verse	*>Label>Verse	*>Label>Verse	*>Label>Verse	*>Label>Verse	*>Label>Verse	*>Label>Verse
1I	B-:maj	4D	sun	1r	.	.	30.837	newline	voice
.	.	4D	goes	.	.	.	.	.	.
.	.	8C	down	.	.	.	.	.	.
.	.	8BB-	_	.	.	.	.	.	.
.	.	8BB-	on	.	.	.	.	.	.
.	.	8BB-	the	.	.	.	.	.	.
=18	=18	=18	=18	=18	=18	=18	=18	=18	=18
1I	B-:maj	8D	A-	1r	.	.	32.238	.	voice
.	.	8D	-ri-	.	.	.	.	.	.
.	.	8C	-zo-	.	.	.	.	.	.
.	.	8D	-na	.	.	.	.	.	.
.	.	8C	plain,	.	.	A	.	.	.
.	.	8BB-	_	.	.	.	.	.	.
.	.	8BB-	and	.	.	.	.	.	.
.	.	8BB-	the	.	.	.	.	.	.
=19	=19	=19	=19	=19	=19	=19	=19	=19	=19
1IV	E-:sus4(b7,9)	4D-	wind	1r	.	.	33.638	.	voice
.	.	8C	whist-	.	.	.	.	.	.
.	.	8D-	-les	.	.	.	.	.	.
.	.	8C	by	.	.	.	.	.	.
.	.	8BB-	_	.	.	.	.	.	.
.	.	8BB-	like	.	.	.	.	.	.
.	.	8BB-	a	.	.	.	.	.	.
=20	=20	=20	=20	=20	=20	=20	=20	=20	=20
1IV	E-:sus4(b7,9)	8D-	run-	1r	.	.	35.039	.	voice
.	.	8D-	-a-	.	.	.	.	.	.
.	.	8BB-	-way	.	.	.	.	.	.
.	.	[8D-	train,	.	.	A	.	.	.
.	.	8D-]	_	.	.	.	.	.	.
.	.	8BB-	hey	.	.	A	.	.	.
.	.	8~D-	hey	.	.	A	.	.	.
.	.	8D	hey...	.	.	A	.	.	.
=21	=21	=21	=21	=21	=21	=21	=21	=21	=21
1I	B-:maj	1r	.	1r	.	.	36.44	.	voice
=22	=22	=22	=22	=22	=22	=22	=22	=22	=22
1I	B-:maj	4r	.	1r	.	.	37.841	.	voice
.	.	8BB-	...it's	.	.	.	.	.	.
.	.	8BB-	a	.	.	.	.	.	.
.	.	8D	beau-	.	.	.	.	.	.
.	.	8~C	-ti-	.	.	.	.	.	.
.	.	8BB-	-ful	.	.	.	.	.	.
.	.	8BB-	thing	.	.	B	.	.	.
=23	=23	=23	=23	=23	=23	=23	=23	=23	=23
1vi7	G:min7	8GG	_	1r	.	.	39.242	.	voice
.	.	8r	.	.	.	.	.	.	.
.	.	4r	.	.	.	.	.	.	.
.	.	2r	.	.	.	.	.	.	.
=24	=24	=24	=24	=24	=24	=24	=24	=24	=24
1-VII	A-:maj(9)	2r	.	1r	.	.	40.642	.	voice
.	.	8r	.	.	.	.	.	.	.
.	.	[8BB-	Well,	.	.	.	.	.	.
.	.	8BB-]	_	.	.	.	.	.	.
.	.	8BB-	it's	.	.	.	.	.	.
=25	=25	=25	=25	=25	=25	=25	=25	=25	=25
1I	B-:maj	8D	me	1r	.	.	42.043	newline	voice
.	.	[8D	and	.	.	.	.	.	.
.	.	8D]	_	.	.	.	.	.	.
.	.	[8D	you	.	.	.	.	.	.
.	.	4D]	_	.	.	.	.	.	.
.	.	8BB-	and	.	.	.	.	.	.
.	.	8BB-	a	.	.	.	.	.	.
=26	=26	=26	=26	=26	=26	=26	=26	=26	=26
1I	B-:maj	4D-	flat-	1r	.	.	43.451	.	voice
.	.	4D-	-bed	.	.	.	.	.	.
.	.	8C	truck,	.	.	C	.	.	.
.	.	8BB-	_	.	.	.	.	.	.
.	.	8BB-	and	.	.	.	.	.	.
.	.	8BB-	my	.	.	.	.	.	.
=27	=27	=27	=27	=27	=27	=27	=27	=27	=27
1IV	E-:sus4(b7,9)	4D-	heart	1r	.	.	44.86	.	voice
.	.	8D-	ki-	.	.	.	.	.	.
.	.	8D-	-cking	.	.	.	.	.	.
.	.	8C	o-	.	.	.	.	.	.
.	.	8BB-	-ver	.	.	.	.	.	.
.	.	8BB-	like	.	.	.	.	.	.
.	.	8BB-	a	.	.	.	.	.	.
=28	=28	=28	=28	=28	=28	=28	=28	=28	=28
1IV	E-:sus4(b7,9)	4F	white-	1r	.	.	46.268	.	voice
.	.	4E-	-tailed	.	.	.	.	.	.
.	.	8D-	buck,	.	.	C	.	.	.
.	.	8~BB-	huh	.	.	C	.	.	.
.	.	8D-	huh	.	.	C	.	.	.
.	.	8D	huh...	.	.	C	.	.	.
=29	=29	=29	=29	=29	=29	=29	=29	=29	=29
1I	B-:maj	1r	.	1r	.	.	47.676	.	voice
=30	=30	=30	=30	=30	=30	=30	=30	=30	=30
1I	B-:maj	8r	.	1r	.	.	49.084	.	voice
.	.	8AA-	...n'	.	.	.	.	.	.
.	.	8BB-	in	.	.	.	.	.	.
.	.	8BB-	the	.	.	.	.	.	.
.	.	8D	mid-	.	.	.	.	.	.
.	.	8C	-dle	.	.	.	.	.	.
.	.	8BB-	of	.	.	.	.	.	.
.	.	8BB-	spring	.	.	B	.	.	.
=31	=31	=31	=31	=31	=31	=31	=31	=31	=31
1vi7	G:min7	8GG	_	1r	.	.	50.492	.	voice
.	.	8r	.	.	.	.	.	.	.
.	.	4r	.	.	.	.	.	.	.
.	.	2r	.	.	.	.	.	.	.
=32	=32	=32	=32	=32	=32	=32	=32	=32	=32
1-VII	A-:maj(9)	2r	.	1r	.	.	51.901	.	voice
.	.	4r	.	.	.	.	.	.	.
.	.	8G	You	.	.	.	.	.	.
.	.	8B-	can	.	.	.	.	.	.
=33	=33	=33	=33	=33	=33	=33	=33	=33	=33
*>Letter>C	*>Letter>C	*>Letter>C	*>Letter>C	*>Letter>C	*>Letter>C	*>Letter>C	*>Letter>C	*>Letter>C	*>Letter>C
*>Label>Prechorus	*>Label>Prechorus	*>Label>Prechorus	*>Label>Prechorus	*>Label>Prechorus	*>Label>Prechorus	*>Label>Prechorus	*>Label>Prechorus	*>Label>Prechorus	*>Label>Prechorus
1ii	C:sus4(b7)	8c	cut	1r	.	.	53.309	newline	voice
.	.	[8c	me	.	.	.	.	.	.
.	.	8c]	_	.	.	.	.	.	.
.	.	[8c	deep,	.	.	.	.	.	.
.	.	4c]	_	.	.	.	.	.	.
.	.	8c	you	.	.	.	.	.	.
.	.	8B-	can	.	.	.	.	.	.
=34	=34	=34	=34	=34	=34	=34	=34	=34	=34
1II7	C:7	8c	cut	1r	.	.	54.715	.	voice
.	.	[8c	me	.	.	.	.	.	.
.	.	8c]	_	.	.	.	.	.	.
.	.	[8c	down,	.	.	.	.	.	.
.	.	4c]	_	.	.	.	.	.	.
.	.	8c	you	.	.	.	.	.	.
.	.	8B-	can	.	.	.	.	.	.
=35	=35	=35	=35	=35	=35	=35	=35	=35	=35
1IV	E-:maj6(9)	8c	cut	1r	.	.	56.121	.	voice
.	.	[8d	me	.	.	.	.	.	.
.	.	8d]	_	.	.	.	.	.	.
.	.	[8B-	loose	.	.	.	.	.	.
.	.	4B-]	_	.	.	.	.	.	.
.	.	4r	.	.	.	.	.	.	.
=36	=36	=36	=36	=36	=36	=36	=36	=36	=36
1IV	E-:maj6(9)	4r	.	1r	.	.	57.527	.	voice
.	.	8G	Don't	.	.	.	.	.	.
.	.	8F	you	.	.	.	.	.	.
.	.	8~F	know	.	.	.	.	.	.
.	.	8~F	it's	.	.	.	.	.	.
.	.	8~C	o-	.	.	.	.	.	.
.	.	8~F	-kay?	.	.	A	.	.	.
=37	=37	=37	=37	=37	=37	=37	=37	=37	=37
1I	B-:maj	8~C	_	1r	.	.	58.933	.	voice
.	.	8~D	_	.	.	.	.	.	.
.	.	4r	.	.	.	.	.	.	.
.	.	2r	.	.	.	.	.	.	.
=38	=38	=38	=38	=38	=38	=38	=38	=38	=38
4-VII	A-:maj	2r	.	1r	.	.	60.339	.	voice
4I	B-:maj6	.	.	.	.	.	60.691	.	voice
2I	B-:maj	8r	.	.	.	.	61.042	.	voice
.	.	[8F	Hey,	.	.	A	.	.	.
.	.	8F]	_	.	.	.	.	.	.
.	.	8F	hey!	.	.	A	.	.	.
=39	=39	=39	=39	=39	=39	=39	=39	=39	=39
1I	B-:maj	8C	_	1r	.	.	61.746	.	voice
.	.	8D	_	.	.	.	.	.	.
.	.	4r	.	.	.	.	.	.	.
.	.	2r	.	.	.	.	.	.	.
=40	=40	=40	=40	=40	=40	=40	=40	=40	=40
4-VII	A-:maj	2r	.	1r	.	.	63.152	.	voice
4I	B-:maj6	.	.	.	.	.	63.503	.	voice
2I	B-:maj	4r	.	.	.	.	63.855	.	voice
.	.	8G	You	.	.	.	.	.	.
.	.	8B-	can	.	.	.	.	.	.
=41	=41	=41	=41	=41	=41	=41	=41	=41	=41
1vi7	G:min7(11)	8c	kick	1r	.	.	64.558	newline	voice
.	.	[8c	and	.	.	.	.	.	.
.	.	8c]	_	.	.	.	.	.	.
.	.	[8c	scream,	.	.	.	.	.	.
.	.	4c]	_	.	.	.	.	.	.
.	.	8c	you	.	.	.	.	.	.
.	.	8B-	can	.	.	.	.	.	.
=42	=42	=42	=42	=42	=42	=42	=42	=42	=42
1vi7	G:min7(11)	4c	slap	1r	.	.	65.962	.	voice
.	.	4c	my	.	.	.	.	.	.
.	.	4c	face,	.	.	D	.	.	.
.	.	4r	.	.	.	.	.	.	.
=43	=43	=43	=43	=43	=43	=43	=43	=43	=43
1ii	C:sus4(b7)	4c	set	1r	.	.	67.366	.	voice
.	.	4c	my	.	.	.	.	.	.
.	.	8c	whe-	.	.	.	.	.	.
.	.	8c	-els	.	.	.	.	.	.
.	.	8c	on	.	.	.	.	.	.
.	.	8B-	a	.	.	.	.	.	.
=44	=44	=44	=44	=44	=44	=44	=44	=44	=44
1II7	C:7	4c	high	1r	.	.	68.77	.	voice
.	.	4c	speed	.	.	.	.	.	.
.	.	4c	chase,	.	.	D	.	.	.
.	.	4c	on	.	.	.	.	.	.
=45	=45	=45	=45	=45	=45	=45	=45	=45	=45
1IV	E-:maj6(9)	4c	you	1r	.	E	70.174	.	voice
.	.	4B-	.	.	.	.	.	.	.
.	.	2r	.	.	.	.	.	.	.
=46	=46	=46	=46	=46	=46	=46	=46	=46	=46
1IV	E-:maj6(9)	8r	.	1r	.	.	71.579	.	voice
.	.	8B-	no	.	.	.	.	.	.
.	.	8B-	mat-	.	.	.	.	.	.
.	.	8B-	-ter	.	.	.	.	.	.
.	.	4d	what	.	.	.	.	.	.
.	.	8d	you	.	.	.	.	.	.
.	.	8d	do!	.	.	E	.	.	.
=47	=47	=47	=47	=47	=47	=47	=47	=47	=47
1V	F:sus4(9)	8c	_	1r	.	.	72.983	.	voice
.	.	8r	.	.	.	.	.	.	.
.	.	4r	.	.	.	.	.	.	.
.	.	2r	.	.	.	.	.	.	.
=48	=48	=48	=48	=48	=48	=48	=48	=48	=48
1V	F:sus4(9)	1r	.	1r	.	.	74.387	.	voice
=49	=49	=49	=49	=49	=49	=49	=49	=49	=49
*>Letter>A	*>Letter>A	*>Letter>A	*>Letter>A	*>Letter>A	*>Letter>A	*>Letter>A	*>Letter>A	*>Letter>A	*>Letter>A
*>Label>Chorus	*>Label>Chorus	*>Label>Chorus	*>Label>Chorus	*>Label>Chorus	*>Label>Chorus	*>Label>Chorus	*>Label>Chorus	*>Label>Chorus	*>Label>Chorus
1V	F:maj(9)	2r	.	1r	.	.	75.791	newline	voice
.	.	4r	.	.	.	.	.	.	.
.	.	4F	Wild	.	.	.	.	.	.
=50	=50	=50	=50	=50	=50	=50	=50	=50	=50
1V	F:maj(9)	4A	hor-	1r	.	.	77.199	.	voice
.	.	4B-	-ses	.	.	.	.	.	.
.	.	4c	could	.	.	.	.	.	.
.	.	16cQ	_	.	.	.	.	.	.
.	.	4d	not	.	.	.	.	.	.
=51	=51	=51	=51	=51	=51	=51	=51	=51	=51
.	.	16cQ	_	.	.	.	.	.	.
1IV7	E-:maj9(13,#11)	4.B-	drag	1r	.	.	78.606	.	voice
.	.	[8B-	me	.	.	.	.	.	.
.	.	4B-]	_	.	.	.	.	.	.
.	.	8B-	a-	.	.	.	.	.	.
.	.	[8B-	-way	.	.	A	.	.	.
=52	=52	=52	=52	=52	=52	=52	=52	=52	=52
1IV7	E-:maj9(13,#11)	16B-]	_	1r	.	.	80.014	.	voice
.	.	16G	_	.	.	.	.	.	.
.	.	16F	_	.	.	.	.	.	.
.	.	16r	.	.	.	.	.	.	.
.	.	4r	.	.	.	.	.	.	.
.	.	4r	.	.	.	.	.	.	.
.	.	4BB-	from	.	.	.	.	.	.
=53	=53	=53	=53	=53	=53	=53	=53	=53	=53
.	.	16CQ	_	.	.	.	.	.	.
1I	B-:maj	4D	you.	1r	.	E	81.421	.	voice
.	.	4r	.	.	.	.	.	.	.
.	.	2r	.	.	.	.	.	.	.
=54	=54	=54	=54	=54	=54	=54	=54	=54	=54
1I	B-:maj	1r	.	1r	.	.	82.828	.	voice
=55	=55	=55	=55	=55	=55	=55	=55	=55	=55
1I	B-:maj	1r	.	1r	.	.	84.236	.	voice
=56	=56	=56	=56	=56	=56	=56	=56	=56	=56
1I	B-:maj	1r	.	1r	.	.	85.643	.	voice
=57	=57	=57	=57	=57	=57	=57	=57	=57	=57
1V	F:maj(9)	2r	.	1r	.	.	87.051	newline	voice
.	.	4r	.	.	.	.	.	.	.
.	.	16e-Q	_	.	.	.	.	.	.
.	.	4f	Wild	.	.	.	.	.	.
=58	=58	=58	=58	=58	=58	=58	=58	=58	=58
1V	F:maj(9)	4c	hor-	1r	.	.	88.457	.	voice
.	.	4c	-ses	.	.	.	.	.	.
.	.	4c	could	.	.	.	.	.	.
.	.	16cQ	_	.	.	.	.	.	.
.	.	4d	not	.	.	.	.	.	.
=59	=59	=59	=59	=59	=59	=59	=59	=59	=59
.	.	16cQ	_	.	.	.	.	.	.
1IV7	E-:maj9(13,#11)	4.B-	drag	1r	.	.	89.863	.	voice
.	.	[8B-	me	.	.	.	.	.	.
.	.	4B-]	_	.	.	.	.	.	.
.	.	8B-	a-	.	.	.	.	.	.
.	.	8B-	-way	.	.	A	.	.	.
=60	=60	=60	=60	=60	=60	=60	=60	=60	=60
1IV7	E-:maj9(13,#11)	2r	.	1r	.	.	91.269	.	voice
.	.	4r	.	.	.	.	.	.	.
.	.	16cQ	_	.	.	.	.	.	.
.	.	4d	from	.	.	.	.	.	.
=61	=61	=61	=61	=61	=61	=61	=61	=61	=61
1I	B-:maj	4c	you!	1r	.	E	92.675	.	voice
.	.	16c	_	.	.	.	.	.	.
.	.	8.B-	_	.	.	.	.	.	.
.	.	2r	.	.	.	.	.	.	.
=62	=62	=62	=62	=62	=62	=62	=62	=62	=62
1I	B-:maj	1r	.	1r	.	.	94.081	.	voice
=63	=63	=63	=63	=63	=63	=63	=63	=63	=63
1I	B-:maj	1r	.	1r	.	.	95.487	.	voice
=64	=64	=64	=64	=64	=64	=64	=64	=64	=64
1I	B-:maj	2r	.	1r	.	.	96.893	.	voice
.	.	8r	.	.	.	.	.	.	.
.	.	8~BB-	As	.	.	.	.	.	.
.	.	4~AA-	the	.	.	.	.	.	.
=65	=65	=65	=65	=65	=65	=65	=65	=65	=65
*>Letter>B	*>Letter>B	*>Letter>B	*>Letter>B	*>Letter>B	*>Letter>B	*>Letter>B	*>Letter>B	*>Letter>B	*>Letter>B
*>Label>Verse	*>Label>Verse	*>Label>Verse	*>Label>Verse	*>Label>Verse	*>Label>Verse	*>Label>Verse	*>Label>Verse	*>Label>Verse	*>Label>Verse
1I	B-:maj	4D	sky	1r	.	.	98.299	newline	voice
.	.	4D	falls	.	.	.	.	.	.
.	.	4D	down	.	.	.	.	.	.
.	.	8BB-	from	.	.	.	.	.	.
.	.	8BB-	the	.	.	.	.	.	.
=66	=66	=66	=66	=66	=66	=66	=66	=66	=66
1I	B-:maj	8D-	mid-	1r	.	.	99.705	.	voice
.	.	[8D-	-night	.	.	.	.	.	.
.	.	8D-]	_	.	.	.	.	.	.
.	.	[8D-	blue,	.	.	E	.	.	.
.	.	4D-]	_	.	.	.	.	.	.
.	.	4r	.	.	.	.	.	.	.
=67	=67	=67	=67	=67	=67	=67	=67	=67	=67
1IV	E-:sus4(b7,9)	8D-	spit-	1r	.	.	101.111	.	voice
.	.	8D-	-tin'	.	.	.	.	.	.
.	.	4D-	like	.	.	.	.	.	.
.	.	8D-	bul-	.	.	.	.	.	.
.	.	8BB-	-lets	.	.	.	.	.	.
.	.	8D-	on	.	.	.	.	.	.
.	.	8BB-	a	.	.	.	.	.	.
=68	=68	=68	=68	=68	=68	=68	=68	=68	=68
*	*	*	*	*clefF4	*	*	*	*	*
1IV	E-:sus4(b7,9)	4D-	hot	1r	.	.	102.517	.	voice
.	.	4D-	tin	.	.	.	.	.	.
.	.	8D-	roof,	.	.	E	.	.	.
.	.	8BB-	a'	.	.	.	.	.	.
.	.	8D-	hey	.	.	.	.	.	.
.	.	[8D	hey	.	.	.	.	.	.
=69	=69	=69	=69	=69	=69	=69	=69	=69	=69
1I	B-:maj	4D]	.	1r	.	.	103.923	.	voice
.	.	2r	.	.	.	.	.	.	.
.	.	4r	.	.	.	.	.	.	.
=70	=70	=70	=70	=70	=70	=70	=70	=70	=70
1I	B-:maj	4r	.	1r	.	.	105.33	.	voice
.	.	8BB-	...it's	.	.	.	.	.	.
.	.	8BB-	a	.	.	.	.	.	.
.	.	8D	beau-	.	.	.	.	.	.
.	.	8C	-ti-	.	.	.	.	.	.
.	.	8BB-	-ful	.	.	.	.	.	.
.	.	8BB-	sound	.	.	F	.	.	.
=71	=71	=71	=71	=71	=71	=71	=71	=71	=71
1vi7	G:min7	2GG	_	1r	.	.	106.736	.	voice
.	.	2r	.	.	.	.	.	.	.
=72	=72	=72	=72	=72	=72	=72	=72	=72	=72
1-VII	A-:maj(9)	2r	.	2r	.	.	108.142	.	voice
.	.	8r	.	8r	.	.	.	.	.
.	.	8B-	A'	8F	A'	.	.	.	.
.	.	8B-	well,	8F	well,	.	.	.	.
.	.	8B-	it's	8F	it's	.	.	.	.
=73	=73	=73	=73	=73	=73	=73	=73	=73	=73
.	.	16cQ	_	.	.	.	.	.	.
1I	B-:maj	8d	me	8A-	me	.	109.548	newline	voice
.	.	.	.	16GQ	_	.	.	.	.
.	.	[8d	and	[8A-	and	.	.	.	.
.	.	8d]	_	8A-]	_	.	.	.	.
.	.	[8B-	you,	[8F	you,	.	.	.	.
.	.	4B-]	_	4F]	_	.	.	.	.
.	.	8B-	and	8F	and	.	.	.	.
.	.	8B-	a	8F	a	.	.	.	.
=74	=74	=74	=74	=74	=74	=74	=74	=74	=74
.	.	.	.	16GQ	_	.	.	.	.
1I	B-:maj	4d-	flat-	4A-	flat-	.	110.948	.	voice
.	.	16d-Q	_	16GQ	_	.	.	.	.
.	.	4d	-bed	4A-	-bed	.	.	.	.
.	.	4B-	truck,	4F	truck,	B	.	.	.
.	.	8B-	in	8F	in	.	.	.	.
.	.	8B-	a	8F	a	.	.	.	.
=75	=75	=75	=75	=75	=75	=75	=75	=75	=75
.	.	.	.	16GQ	_	.	.	.	.
1IV	E-:sus4(b7,9)	8d-	foot	8A-	foot	.	112.348	.	voice
.	.	8d-	a'	8A-	a'	.	.	.	.
.	.	4c	red	4A-	red	.	.	.	.
.	.	[4B-	mud,	[4F	mud,	.	.	.	.
.	.	8B-]	_	8F]	_	.	.	.	.
.	.	16d-Q	_	16A-Q	_	.	.	.	.
.	.	[8e-	just	[8B-	just	.	.	.	.
=76	=76	=76	=76	=76	=76	=76	=76	=76	=76
1IV	E-:sus4(b7,9)	8e-]	_	8B-]	_	.	113.748	.	voice
.	.	[8d-	my	[8A-	my	.	.	.	.
.	.	8d-]	_	8A-]	_	.	.	.	.
.	.	[8B-	luck,	[8F	luck!	B	.	.	.
.	.	8B-]	_	8F]	_	.	.	.	.
.	.	8B-	a'	8r	.	.	.	.	.
.	.	8c	hey	4r	.	.	.	.	.
.	.	8d	hey!	.	.	.	.	.	.
=77	=77	=77	=77	=77	=77	=77	=77	=77	=77
1I	B-:maj	8B-	_	1r	.	.	115.148	.	voice
.	.	8G	_	.	.	.	.	.	.
.	.	4F	_	.	.	.	.	.	.
.	.	2r	.	.	.	.	.	.	.
=78	=78	=78	=78	=78	=78	=78	=78	=78	=78
1I	B-:maj	8r	.	1r	.	.	116.548	.	voice
.	.	8B-	A'	.	.	.	.	.	.
.	.	8d-	hun-	.	.	.	.	.	.
.	.	8B-	-dred	.	.	.	.	.	.
.	.	4d-	miles	.	.	.	.	.	.
.	.	8c	out-	.	.	.	.	.	.
.	.	8B-	-ta	.	.	.	.	.	.
=79	=79	=79	=79	=79	=79	=79	=79	=79	=79
1vi7	G:min7	6B-	town	1r	.	F	117.948	.	voice
.	.	3G	_	.	.	.	.	.	.
.	.	2r	.	.	.	.	.	.	.
=80	=80	=80	=80	=80	=80	=80	=80	=80	=80
1-VII	A-:maj(9)	2r	.	1r	.	.	119.348	.	voice
.	.	4r	.	.	.	.	.	.	.
.	.	8G	You	.	.	.	.	.	.
.	.	8B-	can	.	.	.	.	.	.
=81	=81	=81	=81	=81	=81	=81	=81	=81	=81
*>Letter>C	*>Letter>C	*>Letter>C	*>Letter>C	*>Letter>C	*>Letter>C	*>Letter>C	*>Letter>C	*>Letter>C	*>Letter>C
*>Label>Prechorus	*>Label>Prechorus	*>Label>Prechorus	*>Label>Prechorus	*>Label>Prechorus	*>Label>Prechorus	*>Label>Prechorus	*>Label>Prechorus	*>Label>Prechorus	*>Label>Prechorus
1ii	C:sus4(b7)	8c	call	1r	.	.	120.748	newline	voice
.	.	8c	me	.	.	.	.	.	.
.	.	8c	a	.	.	.	.	.	.
.	.	[8c	fool,	.	.	.	.	.	.
.	.	4c]	_	.	.	.	.	.	.
.	.	8c	you	.	.	.	.	.	.
.	.	8B-	can	.	.	.	.	.	.
=82	=82	=82	=82	=82	=82	=82	=82	=82	=82
1II7	C:7	8c	call	1r	.	.	122.162	.	voice
.	.	[8c	me	.	.	.	.	.	.
.	.	8c]	_	.	.	.	.	.	.
.	.	[8c	blind,	.	.	.	.	.	.
.	.	4c]	_	.	.	.	.	.	.
.	.	8c	you	.	.	.	.	.	.
.	.	8B-	can	.	.	.	.	.	.
=83	=83	=83	=83	=83	=83	=83	=83	=83	=83
1IV	E-:maj6(9)	8c	call	1r	.	.	123.576	.	voice
.	.	[8d	it	.	.	.	.	.	.
.	.	8d]	_	.	.	.	.	.	.
.	.	[8B-	quits,	.	.	.	.	.	.
.	.	4B-]	_	.	.	.	.	.	.
.	.	4r	.	.	.	.	.	.	.
=84	=84	=84	=84	=84	=84	=84	=84	=84	=84
1IV	E-:maj6(9)	8r	.	1r	.	.	124.991	.	voice
.	.	8F	can't	.	.	.	.	.	.
.	.	8G	hear	.	.	.	.	.	.
.	.	8F	a	.	.	.	.	.	.
.	.	8A-	word	.	.	.	.	.	.
.	.	8G	that	.	.	.	.	.	.
.	.	8G	you	.	.	.	.	.	.
.	.	8F	say	.	.	A	.	.	.
=85	=85	=85	=85	=85	=85	=85	=85	=85	=85
1I	B-:maj	8D-	_	1r	.	.	126.405	.	voice
.	.	8D	_	.	.	.	.	.	.
.	.	4r	.	.	.	.	.	.	.
.	.	2r	.	.	.	.	.	.	.
=86	=86	=86	=86	=86	=86	=86	=86	=86	=86
4-VII	A-:maj	2r	.	1r	.	.	127.819	.	voice
4I	B-:maj6	.	.	.	.	.	128.172	.	voice
2I	B-:maj	8r	.	.	.	.	128.526	.	voice
.	.	8E	A'	.	.	.	.	.	.
.	.	8F	hey	.	.	A	.	.	.
.	.	8F	_	.	.	.	.	.	.
=87	=87	=87	=87	=87	=87	=87	=87	=87	=87
1I	B-:maj	2.B-	_	1r	.	.	129.233	.	voice
.	.	4r	.	.	.	.	.	.	.
=88	=88	=88	=88	=88	=88	=88	=88	=88	=88
4-VII	A-:maj	2r	.	1r	.	.	130.647	.	voice
4I	B-:maj6	.	.	.	.	.	131.001	.	voice
2I	B-:maj	8r	.	.	.	.	131.354	.	voice
.	.	8E-	'Cause	.	.	.	.	.	.
.	.	8F	if	.	.	.	.	.	.
.	.	8B-	I	.	.	.	.	.	.
=89	=89	=89	=89	=89	=89	=89	=89	=89	=89
1vi7	G:min7(11)	8c	had	1r	.	.	132.061	newline	voice
.	.	[8c	you	.	.	.	.	.	.
.	.	8c]	_	.	.	.	.	.	.
.	.	[8c	once,	.	.	.	.	.	.
.	.	8c]	_	.	.	.	.	.	.
.	.	8B-	I'm	.	.	.	.	.	.
.	.	8c	gon-	.	.	.	.	.	.
.	.	8B-	-na	.	.	.	.	.	.
=90	=90	=90	=90	=90	=90	=90	=90	=90	=90
1vi7	G:min7(11)	4c	have	1r	.	.	133.461	.	voice
.	.	4c	you	.	.	.	.	.	.
.	.	4c	twice,	.	.	G	.	.	.
.	.	8r	.	.	.	.	.	.	.
.	.	8F	I	.	.	.	.	.	.
=91	=91	=91	=91	=91	=91	=91	=91	=91	=91
1ii	C:sus4(b7)	8c	fol-	1r	.	.	134.861	.	voice
.	.	8c	-low	.	.	.	.	.	.
.	.	4c	my	.	.	.	.	.	.
.	.	8c	heart	.	.	.	.	.	.
.	.	8c	in-	.	.	.	.	.	.
.	.	8c	-stead	.	.	.	.	.	.
.	.	8B-	of	.	.	.	.	.	.
=92	=92	=92	=92	=92	=92	=92	=92	=92	=92
1II7	C:7	8r	.	1r	.	.	136.261	.	voice
.	.	8B-	good	.	.	.	.	.	.
.	.	8B-	ad-	.	.	.	.	.	.
.	.	[8c	-vice,	.	.	G	.	.	.
.	.	8c]	_	.	.	.	.	.	.
.	.	[8c	hey,	.	.	.	.	.	.
.	.	8c]	_	.	.	.	.	.	.
.	.	[8c	you,	.	.	.	.	.	.
=93	=93	=93	=93	=93	=93	=93	=93	=93	=93
1IV	E-:maj6(9)	8c]	_	1r	.	.	137.66	.	voice
.	.	[8B-	_	.	.	.	.	.	.
.	.	4B-]	_	.	.	.	.	.	.
.	.	2r	.	.	.	.	.	.	.
=94	=94	=94	=94	=94	=94	=94	=94	=94	=94
1IV	E-:maj6(9)	8r	.	1r	.	.	139.06	.	voice
.	.	8f	no	.	.	.	.	.	.
.	.	8f	mat-	.	.	.	.	.	.
.	.	8f	-ter	.	.	.	.	.	.
.	.	8f	what	.	.	.	.	.	.
.	.	[8f	you	.	.	E	.	.	.
.	.	8f]	_	.	.	.	.	.	.
.	.	[8f	do!	.	.	E	.	.	.
=95	=95	=95	=95	=95	=95	=95	=95	=95	=95
1V	F:sus4(9)	6f]	_	1r	.	.	140.46	.	voice
.	.	6d	_	.	.	.	.	.	.
.	.	[6c	_	.	.	.	.	.	.
.	.	2c]	_	.	.	.	.	.	.
=96	=96	=96	=96	=96	=96	=96	=96	=96	=96
1V	F:sus4(9)	1r	.	1r	.	.	141.86	.	voice
=97	=97	=97	=97	=97	=97	=97	=97	=97	=97
*>Letter>A	*>Letter>A	*>Letter>A	*>Letter>A	*>Letter>A	*>Letter>A	*>Letter>A	*>Letter>A	*>Letter>A	*>Letter>A
*>Label>Chorus	*>Label>Chorus	*>Label>Chorus	*>Label>Chorus	*>Label>Chorus	*>Label>Chorus	*>Label>Chorus	*>Label>Chorus	*>Label>Chorus	*>Label>Chorus
1V	F:maj(9)	2r	.	2r	.	.	143.259	newline	voice
.	.	4r	.	4r	.	.	.	.	.
.	.	4F	Wild	4f	Wild	.	.	.	.
=98	=98	=98	=98	=98	=98	=98	=98	=98	=98
1V	F:maj(9)	4A	hor-	4f	hor-	.	144.673	.	voice
.	.	4B-	-ses	4f	-ses	.	.	.	.
.	.	4c	could	4f	could	.	.	.	.
.	.	16cQ	_	.	.	.	.	.	.
.	.	4d	not	4g	not	.	.	.	.
=99	=99	=99	=99	=99	=99	=99	=99	=99	=99
.	.	16cQ	_	16dQ	_	.	.	.	.
1IV7	E-:maj9(13,#11)	4.B-	drag	4.e-	_	.	146.087	.	voice
.	.	[8B-	me	[8e-	me	.	.	.	.
.	.	4B-]	_	4e-]	_	.	.	.	.
.	.	8B-	a-	8e-	a-	.	.	.	.
.	.	[8B-	-way	[8e-	-way	A	.	.	.
=100	=100	=100	=100	=100	=100	=100	=100	=100	=100
1IV7	E-:maj9(13,#11)	16B-]	_	4e-]	_	.	147.501	.	voice
.	.	16G	_	.	.	.	.	.	.
.	.	16F	_	.	.	.	.	.	.
.	.	16r	.	.	.	.	.	.	.
.	.	4r	.	4r	.	.	.	.	.
.	.	4r	.	2r	.	.	.	.	.
.	.	4BB-	from	.	.	.	.	.	.
=101	=101	=101	=101	=101	=101	=101	=101	=101	=101
1I	B-:maj	4D	you.	1r	.	E	148.914	.	voice
.	.	4r	.	.	.	.	.	.	.
.	.	2r	.	.	.	.	.	.	.
=102	=102	=102	=102	=102	=102	=102	=102	=102	=102
1I	B-:maj	1r	.	1r	.	.	150.328	.	voice
=103	=103	=103	=103	=103	=103	=103	=103	=103	=103
1I	B-:maj	1r	.	1r	.	.	151.742	.	voice
=104	=104	=104	=104	=104	=104	=104	=104	=104	=104
1I	B-:maj	1r	.	1r	.	.	153.156	.	voice
=105	=105	=105	=105	=105	=105	=105	=105	=105	=105
1V	F:maj(9)	2r	.	2r	.	.	154.569	newline	voice
.	.	4r	.	4r	.	.	.	.	.
.	.	16e-Q	_	.	.	.	.	.	.
.	.	4f	Wild	4b-	Wild	.	.	.	.
=106	=106	=106	=106	=106	=106	=106	=106	=106	=106
1V	F:maj(9)	4c	hor-	4f	hor-	.	155.964	.	voice
.	.	4c	-ses	4f	-ses	.	.	.	.
.	.	4c	could	4f	could	.	.	.	.
.	.	16cQ	_	.	.	.	.	.	.
.	.	4d	not	4g	not	.	.	.	.
=107	=107	=107	=107	=107	=107	=107	=107	=107	=107
.	.	16cQ	_	16dQ	_	.	.	.	.
1IV7	E-:maj9(13,#11)	4.B-	drag	4.e-	_	.	157.36	.	voice
.	.	[8B-	me	[8e-	me	.	.	.	.
.	.	4B-]	_	4e-]	_	.	.	.	.
.	.	8B-	a-	8e-	a-	.	.	.	.
.	.	8B-	-way	8e-	-way	A	.	.	.
=108	=108	=108	=108	=108	=108	=108	=108	=108	=108
1IV7	E-:maj9(13,#11)	2r	.	1r	.	.	158.755	.	voice
.	.	4r	.	.	.	.	.	.	.
.	.	[4d	from	.	.	.	.	.	.
=109	=109	=109	=109	=109	=109	=109	=109	=109	=109
1I	B-:maj	12d]	_	1r	.	.	160.15	.	voice
.	.	12c	you!	.	.	E	.	.	.
.	.	12B-	_	.	.	.	.	.	.
.	.	4r	.	.	.	.	.	.	.
.	.	2r	.	.	.	.	.	.	.
=110	=110	=110	=110	=110	=110	=110	=110	=110	=110
1I	B-:maj	4r	.	1r	.	.	161.545	.	voice
.	.	8r	.	.	.	.	.	.	.
.	.	16FQ	_	.	.	.	.	.	.
.	.	[8G	Ooh	.	.	E	.	.	.
.	.	4.G]	_	.	.	.	.	.	.
.	.	[8F	_	.	.	.	.	.	.
=111	=111	=111	=111	=111	=111	=111	=111	=111	=111
1I	B-:maj	4.F]	_	1r	.	.	162.94	.	voice
.	.	8D	_	.	.	.	.	.	.
.	.	8C	_	.	.	.	.	.	.
.	.	8BB-	_	.	.	.	.	.	.
.	.	4r	.	.	.	.	.	.	.
=112	=112	=112	=112	=112	=112	=112	=112	=112	=112
1I	B-:maj	1r	.	1r	.	.	164.336	.	voice
=113	=113	=113	=113	=113	=113	=113	=113	=113	=113
*>Letter>D	*>Letter>D	*>Letter>D	*>Letter>D	*>Letter>D	*>Letter>D	*>Letter>D	*>Letter>D	*>Letter>D	*>Letter>D
*>Label>Solo	*>Label>Solo	*>Label>Solo	*>Label>Solo	*>Label>Solo	*>Label>Solo	*>Label>Solo	*>Label>Solo	*>Label>Solo	*>Label>Solo
1vi7	G:min7	1r	.	1r	.	.	165.731	newline	synthesizer
=114	=114	=114	=114	=114	=114	=114	=114	=114	=114
1-VII	A-:maj6(9)	1r	.	1r	.	.	167.155	.	synthesizer
=115	=115	=115	=115	=115	=115	=115	=115	=115	=115
1I	B-:maj	1r	.	1r	.	.	168.579	.	synthesizer
=116	=116	=116	=116	=116	=116	=116	=116	=116	=116
1r	N	1r	.	1r	.	.	170.003	.	synthesizer
=117	=117	=117	=117	=117	=117	=117	=117	=117	=117
1vi7	G:min7	1r	.	1r	.	.	171.427	newline	synthesizer
=118	=118	=118	=118	=118	=118	=118	=118	=118	=118
1-VII	A-:maj6(9)	1r	.	1r	.	.	172.812	.	synthesizer
=119	=119	=119	=119	=119	=119	=119	=119	=119	=119
1I	B-:maj	1r	.	1r	.	.	174.198	.	synthesizer
=120	=120	=120	=120	=120	=120	=120	=120	=120	=120
1r	N	1r	.	1r	.	.	175.583	.	synthesizer
=121	=121	=121	=121	=121	=121	=121	=121	=121	=121
1vi7	G:min7	1r	.	1r	.	.	176.969	newline	synthesizer
=122	=122	=122	=122	=122	=122	=122	=122	=122	=122
1-VII	A-:maj6(9)	1r	.	1r	.	.	178.42	.	synthesizer
=123	=123	=123	=123	=123	=123	=123	=123	=123	=123
*>Letter>B	*>Letter>B	*>Letter>B	*>Letter>B	*>Letter>B	*>Letter>B	*>Letter>B	*>Letter>B	*>Letter>B	*>Letter>B
*>Label>Verse	*>Label>Verse	*>Label>Verse	*>Label>Verse	*>Label>Verse	*>Label>Verse	*>Label>Verse	*>Label>Verse	*>Label>Verse	*>Label>Verse
1I	B-:maj	4D-	Sun	1r	.	.	179.87	newline	voice
.	.	4D-	goes	.	.	.	.	.	.
.	.	16D-Q	_	.	.	.	.	.	.
.	.	4D	down	.	.	.	.	.	.
.	.	8BB-	on	.	.	.	.	.	.
.	.	8BB-	the	.	.	.	.	.	.
=124	=124	=124	=124	=124	=124	=124	=124	=124	=124
1I	B-:maj	8D-	A-	1r	.	.	181.271	.	voice
.	.	8D-	-ri-	.	.	.	.	.	.
.	.	8C	-zo-	.	.	.	.	.	.
.	.	8D-	-na	.	.	.	.	.	.
.	.	16C	plain,	.	.	A	.	.	.
.	.	8.BB-	_	.	.	.	.	.	.
.	.	8BB-	and	.	.	.	.	.	.
.	.	8BB-	the	.	.	.	.	.	.
=125	=125	=125	=125	=125	=125	=125	=125	=125	=125
1IV	E-:sus4(b7,9)	4D-	wind	1r	.	.	182.672	.	voice
.	.	8D-	whis-	.	.	.	.	.	.
.	.	8BB-	-tles	.	.	.	.	.	.
.	.	4D-	by	.	.	.	.	.	.
.	.	8BB-	like	.	.	.	.	.	.
.	.	8BB-	a	.	.	.	.	.	.
=126	=126	=126	=126	=126	=126	=126	=126	=126	=126
1IV	E-:sus4(b7,9)	8F	run-	1r	.	.	184.073	.	voice
.	.	8F	-a-	.	.	.	.	.	.
.	.	8E-	-way	.	.	.	.	.	.
.	.	16D-	train,	.	.	A	.	.	.
.	.	[16BB-	_	.	.	.	.	.	.
.	.	8BB-]	_	.	.	.	.	.	.
.	.	8BB-	a'	.	.	.	.	.	.
.	.	8C	hey	.	.	A	.	.	.
.	.	8D	hey...	.	.	A	.	.	.
=127	=127	=127	=127	=127	=127	=127	=127	=127	=127
1I	B-:maj	1r	.	1r	.	.	185.474	.	voice
=128	=128	=128	=128	=128	=128	=128	=128	=128	=128
1I	B-:maj	4r	.	1r	.	.	186.875	.	voice
.	.	8BB-	...it's	.	.	.	.	.	.
.	.	8BB-	a	.	.	.	.	.	.
.	.	8D	beau-	.	.	.	.	.	.
.	.	8C	-ti-	.	.	.	.	.	.
.	.	8BB-	-ful	.	.	.	.	.	.
.	.	8BB-	thing	.	.	B	.	.	.
=129	=129	=129	=129	=129	=129	=129	=129	=129	=129
1vi7	G:min7	2GG	_	1r	.	.	188.276	.	voice
.	.	2r	.	.	.	.	.	.	.
=130	=130	=130	=130	=130	=130	=130	=130	=130	=130
1-VII	A-:maj(9)	1r	.	1r	.	.	189.677	.	voice
=131	=131	=131	=131	=131	=131	=131	=131	=131	=131
1-VII	A-:maj(9)	1r	.	1r	.	.	191.078	newline	voice
=132	=132	=132	=132	=132	=132	=132	=132	=132	=132
1-VII	A-:maj(9)	1r	.	1r	.	.	192.475	.	voice
=133	=133	=133	=133	=133	=133	=133	=133	=133	=133
1-VII	A-:maj(9)	1r	.	1r	.	.	193.871	.	voice
=134	=134	=134	=134	=134	=134	=134	=134	=134	=134
*>Letter>A2	*>Letter>A2	*>Letter>A2	*>Letter>A2	*>Letter>A2	*>Letter>A2	*>Letter>A2	*>Letter>A2	*>Letter>A2	*>Letter>A2
*>Label>Chorus	*>Label>Chorus	*>Label>Chorus	*>Label>Chorus	*>Label>Chorus	*>Label>Chorus	*>Label>Chorus	*>Label>Chorus	*>Label>Chorus	*>Label>Chorus
1V	F:maj(9)	2r	.	2r	.	.	195.267	newline	voice
.	.	4r	.	4r	.	.	.	.	.
.	.	.	.	8e-q	_	.	.	.	.
.	.	4F	Wild	4f	Wild	.	.	.	.
=135	=135	=135	=135	=135	=135	=135	=135	=135	=135
1V	F:maj(9)	4A	hor-	4f	hor-	.	196.674	.	voice
.	.	4B-	-ses	4f	-ses	.	.	.	.
.	.	4c	could	4f	could	.	.	.	.
.	.	8cq	_	.	.	.	.	.	.
.	.	4d	not	4g	not	.	.	.	.
=136	=136	=136	=136	=136	=136	=136	=136	=136	=136
.	.	16cQ	_	16dQ	_	.	.	.	.
1IV7	E-:maj9(13,#11)	4.B-	drag	4.e-	_	.	198.081	.	voice
.	.	[8B-	me	[8e-	me	.	.	.	.
.	.	4B-]	_	4e-]	_	.	.	.	.
.	.	8B-	a-	8e-	a-	.	.	.	.
.	.	[8B-	-way	[8e-	-way	A	.	.	.
=137	=137	=137	=137	=137	=137	=137	=137	=137	=137
1IV7	E-:maj9(13,#11)	16B-]	_	4e-]	_	.	199.488	.	voice
.	.	16G	_	.	.	.	.	.	.
.	.	16F	_	.	.	.	.	.	.
.	.	16r	.	.	.	.	.	.	.
.	.	4r	.	4r	.	.	.	.	.
.	.	4r	.	2r	.	.	.	.	.
.	.	4BB-	from	.	.	.	.	.	.
=138	=138	=138	=138	=138	=138	=138	=138	=138	=138
.	.	8Cq	_	.	.	.	.	.	.
1I	B-:maj	4D	you.	1r	.	E	200.894	.	voice
.	.	4r	.	.	.	.	.	.	.
.	.	2r	.	.	.	.	.	.	.
=139	=139	=139	=139	=139	=139	=139	=139	=139	=139
1I	B-:maj	1r	.	1r	.	.	202.301	.	voice
=140	=140	=140	=140	=140	=140	=140	=140	=140	=140
1I	B-:maj	1r	.	1r	.	.	203.708	.	voice
=141	=141	=141	=141	=141	=141	=141	=141	=141	=141
1I	B-:maj	1r	.	1r	.	.	205.115	.	voice
=142	=142	=142	=142	=142	=142	=142	=142	=142	=142
*	*	*	*	*clefG2	*	*	*	*	*
1V	F:maj(9)	2r	.	2r	.	.	206.521	newline	voice
.	.	4r	.	4r	.	.	.	.	.
.	.	8e-q	_	.	.	.	.	.	.
.	.	4f	Wild	4b-	Wild	.	.	.	.
=143	=143	=143	=143	=143	=143	=143	=143	=143	=143
1V	F:maj(9)	4c	hor-	4f	hor-	.	207.928	.	voice
.	.	4c	-ses	4f	-ses	.	.	.	.
.	.	4c	could	4f	could	.	.	.	.
.	.	8cq	_	.	.	.	.	.	.
.	.	4d	not	4g	not	.	.	.	.
=144	=144	=144	=144	=144	=144	=144	=144	=144	=144
.	.	16cQ	_	16fQ	_	.	.	.	.
1IV7	E-:maj9(13,#11)	4.B-	drag	4.e-	_	.	209.335	.	voice
.	.	[8B-	me	[8e-	me	.	.	.	.
.	.	4B-]	_	4e-]	_	.	.	.	.
.	.	8B-	a-	8e-	a-	.	.	.	.
.	.	8B-	-way	8e-	-way	A	.	.	.
=145	=145	=145	=145	=145	=145	=145	=145	=145	=145
1IV7	E-:maj9(13,#11)	2r	.	1r	.	.	210.743	.	voice
.	.	8cq	_	.	.	.	.	.	.
.	.	2d	from	.	.	.	.	.	.
=146	=146	=146	=146	=146	=146	=146	=146	=146	=146
1vi7	G:min7(11)	2B-	you!	1r	.	E	212.15	.	voice
.	.	2r	.	.	.	.	.	.	.
=147	=147	=147	=147	=147	=147	=147	=147	=147	=147
1vi7	G:min7(11)	2r	.	1r	.	.	213.557	.	voice
.	.	8r	.	.	.	.	.	.	.
.	.	8F	Ooh	.	.	E	.	.	.
.	.	[4G	_	.	.	.	.	.	.
=148	=148	=148	=148	=148	=148	=148	=148	=148	=148
1ii	C:sus4(b7)	8G]	_	1r	.	.	214.964	.	voice
.	.	[8F	_	.	.	.	.	.	.
.	.	4F]	_	.	.	.	.	.	.
.	.	2r	.	.	.	.	.	.	.
=149	=149	=149	=149	=149	=149	=149	=149	=149	=149
1II7	C:7	1r	.	1r	.	.	216.371	.	voice
=150	=150	=150	=150	=150	=150	=150	=150	=150	=150
1IV7	E-:maj9	2r	.	1r	.	.	217.778	newline	voice
.	.	4r	.	.	.	.	.	.	.
.	.	8e-q	_	.	.	.	.	.	.
.	.	4f	Wild	.	.	.	.	.	.
=151	=151	=151	=151	=151	=151	=151	=151	=151	=151
1IV7	E-:maj9	4f	hor-	1r	.	.	219.186	.	voice
.	.	4f	-ses	.	.	.	.	.	.
.	.	4f	could	.	.	.	.	.	.
.	.	8fq	_	.	.	.	.	.	.
.	.	4g	not	.	.	.	.	.	.
=152	=152	=152	=152	=152	=152	=152	=152	=152	=152
.	.	8dq	_	.	.	.	.	.	.
1V	F:sus4(9)	4.c	drag	1r	.	.	220.594	.	voice
.	.	[8c	me	.	.	.	.	.	.
.	.	4c]	_	.	.	.	.	.	.
.	.	8c	a-	.	.	.	.	.	.
.	.	8c	-way	.	.	A	.	.	.
=153	=153	=153	=153	=153	=153	=153	=153	=153	=153
1V	F:sus4(9)	8B-	_	1r	.	.	222.002	.	voice
.	.	8r	.	.	.	.	.	.	.
.	.	4r	.	.	.	.	.	.	.
.	.	8r	.	.	.	.	.	.	.
.	.	[8d	from	.	.	.	.	.	.
.	.	4d_	_	.	.	.	.	.	.
=154	=154	=154	=154	=154	=154	=154	=154	=154	=154
1-VII	A-:maj(9)	4d]	_	2r	.	.	223.41	.	voice
.	.	8c	you!	.	.	E	.	.	.
.	.	[8B-	_	.	.	.	.	.	.
.	.	2B-_	_	4r	.	.	.	.	.
.	.	.	.	8r	.	.	.	.	.
.	.	.	.	[8f	Ooh	E	.	.	.
=155	=155	=155	=155	=155	=155	=155	=155	=155	=155
1-VIIb	A-:maj(9)/3	1B-]	_	1f]	_	.	224.818	.	voice
=156	=156	=156	=156	=156	=156	=156	=156	=156	=156
1-VIIg	A-:maj(9)/6	[1F	_	[1b-	_	.	226.226	.	voice
=157	=157	=157	=157	=157	=157	=157	=157	=157	=157
1-VIIg	A-:maj(9)/6	1F]	_	2.b-]	_	.	227.634	.	voice
.	.	.	.	4a-	.	.	.	.	.
=158	=158	=158	=158	=158	=158	=158	=158	=158	=158
*>Letter>A	*>Letter>A	*>Letter>A	*>Letter>A	*>Letter>A	*>Letter>A	*>Letter>A	*>Letter>A	*>Letter>A	*>Letter>A
*>Label>Chorus	*>Label>Chorus	*>Label>Chorus	*>Label>Chorus	*>Label>Chorus	*>Label>Chorus	*>Label>Chorus	*>Label>Chorus	*>Label>Chorus	*>Label>Chorus
1V	F:maj(9)	1r	.	1r	.	.	229.042	newline	synthesizer
=159	=159	=159	=159	=159	=159	=159	=159	=159	=159
1V	F:maj(9)	1r	.	1r	.	.	230.446	.	synthesizer
=160	=160	=160	=160	=160	=160	=160	=160	=160	=160
1IV7	E-:maj9(13,#11)	1r	.	1r	.	.	231.849	.	synthesizer
=161	=161	=161	=161	=161	=161	=161	=161	=161	=161
1IV7	E-:maj9(13,#11)	1r	.	1r	.	.	233.252	.	synthesizer
=162	=162	=162	=162	=162	=162	=162	=162	=162	=162
1I	B-:maj	1r	.	1r	.	.	234.656	.	synthesizer
=163	=163	=163	=163	=163	=163	=163	=163	=163	=163
1I	B-:maj	1r	.	1r	.	.	236.059	.	synthesizer
=164	=164	=164	=164	=164	=164	=164	=164	=164	=164
1I	B-:maj	1r	.	1r	.	.	237.463	.	synthesizer
=165	=165	=165	=165	=165	=165	=165	=165	=165	=165
1I	B-:maj	1r	.	1r	.	.	238.866	.	synthesizer
=166	=166	=166	=166	=166	=166	=166	=166	=166	=166
1V	F:maj(9)	2r	.	2r	.	.	240.269	newline	synthesizer
.	.	8r	.	8r	.	.	.	.	.
.	.	8e-q	_	8aq	_	.	.	.	.
.	.	4.f	Wild	4.b-	Wild	.	.	.	.
=167	=167	=167	=167	=167	=167	=167	=167	=167	=167
1V	F:maj(9)	4c	hor-	4f 4g	hor-	.	241.678	.	synthesizer
.	.	4c	-ses	2.f	-ses...	.	.	.	.
.	.	4F	could-	.	.	.	.	.	.
.	.	4F	-n't	.	.	.	.	.	.
=168	=168	=168	=168	=168	=168	=168	=168	=168	=168
1IV7	E-:maj9(13,#11)	4.G	drag	1r	.	.	243.087	.	synthesizer
.	.	[8B-	me	.	.	.	.	.	.
.	.	4B-]	_	.	.	.	.	.	.
.	.	8c	a-	.	.	.	.	.	.
.	.	8d-	-way	.	.	A	.	.	.
=169	=169	=169	=169	=169	=169	=169	=169	=169	=169
1IV7	E-:maj9(13,#11)	8c	_	1r	.	.	244.496	.	synthesizer
.	.	[8B-	_	.	.	.	.	.	.
.	.	4B-_	_	.	.	.	.	.	.
.	.	4B-]	_	.	.	.	.	.	.
.	.	4F	from	.	.	.	.	.	.
=170	=170	=170	=170	=170	=170	=170	=170	=170	=170
1I	B-:maj	4G	you!	1r	.	E	245.905	.	synthesizer
.	.	4r	.	.	.	.	.	.	.
.	.	2r	.	.	.	.	.	.	.
=171	=171	=171	=171	=171	=171	=171	=171	=171	=171
1I	B-:maj	1r	.	1r	.	.	247.313	.	synthesizer
=172	=172	=172	=172	=172	=172	=172	=172	=172	=172
1I	B-:maj	1r	.	1r	.	.	248.722	.	synthesizer
=173	=173	=173	=173	=173	=173	=173	=173	=173	=173
1I	B-:maj	1r	.	1r	.	.	250.131	.	synthesizer
=174	=174	=174	=174	=174	=174	=174	=174	=174	=174
1V	F:maj(9)	1r	.	1r	.	.	251.54	newline	synthesizer
=175	=175	=175	=175	=175	=175	=175	=175	=175	=175
1V	F:maj(9)	2r	.	1r	.	.	252.942	.	synthesizer
.	.	4d	Could	.	.	.	.	.	.
.	.	4d	not	.	.	.	.	.	.
=176	=176	=176	=176	=176	=176	=176	=176	=176	=176
.	.	16cQ	_	.	.	.	.	.	.
1IV7	E-:maj9(13,#11)	4.B-	_	1r	.	.	254.343	.	synthesizer
.	.	[8B-	me	.	.	.	.	.	.
.	.	4B-]	_	.	.	.	.	.	.
.	.	8B-	a-	.	.	.	.	.	.
.	.	8B-	-way	.	.	A	.	.	.
=177	=177	=177	=177	=177	=177	=177	=177	=177	=177
1IV7	E-:maj9(13,#11)	2r	.	1r	.	.	255.745	.	synthesizer
.	.	8r	.	.	.	.	.	.	.
.	.	4.B-	from	.	.	.	.	.	.
=178	=178	=178	=178	=178	=178	=178	=178	=178	=178
1I	B-:maj	8B-	you!	1r	.	E	257.146	.	synthesizer
.	.	[8f	_	.	.	.	.	.	.
.	.	2.f]	_	.	.	.	.	.	.
=179	=179	=179	=179	=179	=179	=179	=179	=179	=179
1I	B-:maj	1r	.	1r	.	.	258.548	.	synthesizer
=180	=180	=180	=180	=180	=180	=180	=180	=180	=180
1I	B-:maj	1r	.	1r	.	.	259.949	.	synthesizer
=181	=181	=181	=181	=181	=181	=181	=181	=181	=181
1I	B-:maj	1r	.	1r	.	.	261.351	.	synthesizer
=182	=182	=182	=182	=182	=182	=182	=182	=182	=182
*>Label>>Fadeout	*>Label>>Fadeout	*>Label>>Fadeout	*>Label>>Fadeout	*>Label>>Fadeout	*>Label>>Fadeout	*>Label>>Fadeout	*>Label>>Fadeout	*>Label>>Fadeout	*>Label>>Fadeout
1V	F:maj(9)	1r	.	1r	.	.	262.753	newline	synthesizer
=183	=183	=183	=183	=183	=183	=183	=183	=183	=183
1V	F:maj(9)	1r	.	1r	.	.	264.161	.	synthesizer
*-	*-	*-	*-	*-	*-	*-	*-	*-	*-
!!!BillboardChartDate: 1987/05/16
!!!BillboardPeak: 55
!!!BillboardWeeksOnChart: 15
!!!COC: Gino Vannelli
!!!ENC: Nathaniel Condit-Schultz
!!!EST: Awating manual error checking and editing.
!!!OTL: Wild Horses
!!!RDF**harte: Chris Harte's syntax, used by MIREX
!!!RDF**harmony: **recip + pitch class of root + harmonic quality
!!!RDF**leadinstrument: original McGill primary instrumentation annotation
!!!RDF**phrase: newline = linebreak in original McGill transcription
!!!RDF**timestamp: McGill audio timestamp in seconds
!!!RDT: 2017/01/12/
!!!SampleActualRank: 72
!!!SampleID#: 0407
!!!SampleTargetRank: 71
!!!MBID: 5b87c7cd-5f04-4409-8f67-7cc51cdfdf7e
